Yaru++/mimetypes/48/text-x-typescript.svg

<svg height="48" viewBox="0 0 12.699375 12.699375" width="48" xmlns="http://www.w3.org/2000/svg" xmlns:xlink="http://www.w3.org/1999/xlink"><linearGradient id="a" gradientUnits="userSpaceOnUse" x1="6.350072" x2="6.350072" y1=".396856" y2="12.03795"><stop offset="0" stop-color="#fff"/><stop offset=".125" stop-color="#fff" stop-opacity=".098039"/><stop offset=".92500001" stop-color="#fff" stop-opacity=".098039"/><stop offset="1" stop-color="#fff" stop-opacity=".498039"/></linearGradient><linearGradient id="b" gradientTransform="matrix(0 -.02997086 .02997 0 -3.039509 13.625372)" gradientUnits="userSpaceOnUse" x1="459.03448" x2="35.310345" y1="419.23337" y2="207.36522"><stop offset="0" stop-color="#f2f2f2"/><stop offset="1" stop-color="#f9f9f9"/></linearGradient><path d="m4.1621982.39685654c-.5881133-.0089583-1.0513178.0135407-1.4323995.0775109-.3810845.0639689-.6929229.1839555-.9213477.4118408-.228422.22788546-.3489841.53958336-.4123566.92082866-.0633725.3812456-.0757438.8453924-.07286 1.4349839v3.2399529 3.2415031c-.00286.5886852.00955 1.0525972.07286 1.4334332.063373.381246.1839345.692944.4123566.920829.2284247.227885.5402631.347873.9213476.411841.3810844.06397.8442174.07751 1.4323995.07751h4.3757443c.5881821 0 1.0510744-.01352 1.4313677-.07751.3802939-.064.6911799-.18439.9187609-.412357.227583-.227967.347433-.539443.411324-.920313.06389-.380868.07751-.844073.07751-1.4334332v-3.2415031-3.1748437l-2.8389625-2.84361416z" opacity=".1"/><path d="m4.1623596.39685654c-2.3346161 0-2.5858177.2397933-2.574375 2.57913196v3.2414149 3.2414154c-.011456 2.3393382.2397589 2.5791312 2.574375 2.5791312h4.3757787c2.3346167 0 2.5743757-.239767 2.5743757-2.5791312v-3.2414154l-.000178-3.1748438-2.6457031-2.64570306z" fill="none" opacity=".2" stroke="#000" stroke-width=".529141"/><path d="m4.1623596.39685654c-2.3346161 0-2.5858177.2397933-2.574375 2.57913196v3.2414149 3.2414154c-.011456 2.3393382.2397589 2.5791312 2.574375 2.5791312h4.3757787c2.3346167 0 2.5743757-.239767 2.5743757-2.5791312v-3.2414154l-.000178-3.1748438-2.6457031-2.64570306z" fill="url(#b)"/><path d="m8.3089569 5.3931999c.2107329.052681.371417.1461936.5189309.2989777.076392.081657.1896598.2304884.1988801.2660493.00265.01053-.3582467.2528816-.5768823.38854-.00791.00526-.039514-.028976-.075075-.08166-.1066822-.1554135-.2186351-.2225853-.3898571-.2344407-.2515614-.0171177-.4135631.1145881-.4122455.3345412 0 .064537.00923.1027327.035561.1554139.055316.1145881.158049.1830748.4807348.3226859.5940053.255514.8482018.4241009 1.0062508.6638095.1764895.2673691.2160031.6941031.096147 1.0115211-.1317084.345076-.4583443.579518-.9180061.657224-.1422462.02503-.4794173.02106-.6322013-.0066-.3332211-.05927-.6493217-.223904-.8442492-.439907-.076392-.08429-.2252208-.304245-.2160005-.32005.00394-.0053.038193-.02635.076389-.04873.036879-.02109.1764896-.101417.308198-.177807l.238391-.138293.050049.07376c.069807.106682.2225883.252879.3147831.30161.2647344.139611.6282487.119856.8073734-.04083.076389-.0698.1080002-.142244.1080002-.248929 0-.09615-.011853-.138294-.061904-.210733-.064537-.0922-.196245-.169908-.5702945-.33191-.4280531-.1843763-.6124454-.2989643-.7810322-.4807215-.0974624-.1053678-.1896599-.273952-.2278533-.4148806-.0316108-.1172206-.0395135-.4109306-.0144984-.5294687.0882421-.4135631.4003928-.7020056.8508343-.7876153.1461963-.0276581.4860051-.0171177.6295662.0184406zm-1.9479651.3463914.00265.3398088h-.5400081-.5400066v1.5344017 1.534402h-.3819522-.3819549v-1.534402-1.5344017h-.5400065-.5400039v-.3332237c0-.1843923.00394-.3384886.00923-.3424413.00394-.00526.6611771-.00791 1.4580126-.00659l1.4501073.00394z" fill="#1a7fd4" stroke-width=".026457"/><path d="m1.5878047 6.2174034v3.2415034c-.011456 2.3393372.2397774 2.5790432 2.5743935 2.5790432h4.3757443c2.3346165 0 2.5743935-.239679 2.5743935-2.5790432v-3.2415034z" fill="#fff" opacity=".2"/><path d="m6.3500704.39685654v11.64109346h2.1878721c2.3346165 0 2.5743935-.239679 2.5743935-2.5790432v-3.2415034-3.1748438l-2.6457031-2.64570306z" fill="#fff" opacity=".1"/><path d="m4.1621982.39685654c-2.3346161 0-2.5858362.2397052-2.5743935 2.57904386v3.241503 3.2415034c-.011456 2.3393372.2397774 2.5790432 2.5743935 2.5790432h4.3757443c2.3346165 0 2.5743935-.239679 2.5743935-2.5790432v-3.2415034-3.1748438h-.26457v3.1748438 3.2415034c0 .5803222-.01624 1.0240712-.07028 1.3461032-.05402.322035-.139871.509123-.264055.633524-.124184.124388-.310701.2105-.6319709.264571-.321273.05406-.7643965.07028-1.3435224.07028h-4.3757395c-.5791259 0-1.0227997-.01619-1.3450728-.07028-.3222705-.054102-.5102953-.14009-.6350719-.264571-.124774-.124488-.2105874-.311351-.2640518-.633005-.053467-.321654-.0684682-.765511-.0656267-1.3455892v-.000529-3.2420074-3.2420198-.0005291c-.00283-.5800778.01217-1.0239334.065627-1.3455882.053467-.3216548.1392778-.5085248.2640518-.63300506.124774-.1244803.31332-.2104736.6355904-.2645703.3222705-.0540718.7654284-.0702641 1.3445543-.0702641h4.3044347v-.2645703z" fill="url(#a)" opacity=".4"/><path d="m11.112336 3.30713v-.2645704l-2.6457031-2.64570306h-.2645703v1.11359066.042668.022917c0 1.5059289.201592 1.7381397 1.7109762 1.7307589z" opacity=".2"/><path d="m11.112336 3.042221-2.6457031-2.64536496v.98127586.042668.022917c0 1.5059289.069402 1.6058846 1.5787861 1.5985039z" fill="#faf8f6"/></svg>

<?xml version="1.0" encoding="UTF-8" standalone="no"?>
<svg
   xmlns:dc="http://purl.org/dc/elements/1.1/"
   xmlns:cc="http://creativecommons.org/ns#"
   xmlns:rdf="http://www.w3.org/1999/02/22-rdf-syntax-ns#"
   xmlns:svg="http://www.w3.org/2000/svg"
   xmlns="http://www.w3.org/2000/svg"
   xmlns:xlink="http://www.w3.org/1999/xlink"
   xmlns:sodipodi="http://sodipodi.sourceforge.net/DTD/sodipodi-0.dtd"
   xmlns:inkscape="http://www.inkscape.org/namespaces/inkscape"
   height="48"
   viewBox="0 0 12.699375 12.699375"
   width="48"
   version="1.1"
   id="svg33"
   sodipodi:docname="text-x-typescript.svg"
   inkscape:version="0.92.5 (2060ec1f9f, 2020-04-08)">
  <metadata
     id="metadata39">
    <rdf:RDF>
      <cc:Work
         rdf:about="">
        <dc:format>image/svg+xml</dc:format>
        <dc:type
           rdf:resource="http://purl.org/dc/dcmitype/StillImage" />
      </cc:Work>
    </rdf:RDF>
  </metadata>
  <defs
     id="defs37">
    <linearGradient
       gradientTransform="matrix(0.26457031,0,0,0.26457031,-84.662115,-16.006503)"
       inkscape:collect="always"
       xlink:href="#linearGradient927"
       id="linearGradient1004"
       x1="344"
       y1="62"
       x2="344"
       y2="106"
       gradientUnits="userSpaceOnUse" />
    <linearGradient
       inkscape:collect="always"
       id="linearGradient927">
      <stop
         style="stop-color:#ffffff;stop-opacity:1;"
         offset="0"
         id="stop923" />
      <stop
         id="stop933"
         offset="0.125"
         style="stop-color:#ffffff;stop-opacity:0.09803922" />
      <stop
         id="stop931"
         offset="0.92500001"
         style="stop-color:#ffffff;stop-opacity:0.09803922" />
      <stop
         style="stop-color:#ffffff;stop-opacity:0.49803922"
         offset="1"
         id="stop925" />
    </linearGradient>
    <linearGradient
       inkscape:collect="always"
       xlink:href="#linearGradient4338"
       id="linearGradient1024"
       gradientUnits="userSpaceOnUse"
       gradientTransform="matrix(0,-0.02997086,0.02997,0,-3.0395088,13.625372)"
       x1="459.03448"
       y1="419.23337"
       x2="35.310345"
       y2="207.36522" />
    <linearGradient
       inkscape:collect="always"
       id="linearGradient4338">
      <stop
         style="stop-color:#f2f2f2;stop-opacity:1"
         offset="0"
         id="stop4340" />
      <stop
         style="stop-color:#f9f9f9;stop-opacity:1"
         offset="1"
         id="stop4342" />
    </linearGradient>
  </defs>
  <sodipodi:namedview
     pagecolor="#ffffff"
     bordercolor="#666666"
     borderopacity="1"
     objecttolerance="10"
     gridtolerance="10"
     guidetolerance="10"
     inkscape:pageopacity="0"
     inkscape:pageshadow="2"
     inkscape:window-width="834"
     inkscape:window-height="480"
     id="namedview35"
     showgrid="false"
     inkscape:zoom="4.9166667"
     inkscape:cx="24"
     inkscape:cy="24"
     inkscape:window-x="0"
     inkscape:window-y="28"
     inkscape:window-maximized="0"
     inkscape:current-layer="svg33" />
  <linearGradient
     id="a"
     gradientTransform="matrix(0 -.02997086 .02997 0 -3.039509 13.625372)"
     gradientUnits="userSpaceOnUse"
     x1="459.03448"
     x2="35.310345"
     y1="419.23337"
     y2="207.36522">
    <stop
       offset="0"
       stop-color="#f2f2f2"
       id="stop2" />
    <stop
       offset="1"
       stop-color="#f9f9f9"
       id="stop4" />
  </linearGradient>
  <linearGradient
     id="b"
     gradientUnits="userSpaceOnUse"
     x1="344"
     x2="344"
     y1="62"
     y2="106">
    <stop
       offset="0"
       stop-color="#fff"
       id="stop7" />
    <stop
       offset=".125"
       stop-color="#fff"
       stop-opacity=".098039"
       id="stop9" />
    <stop
       offset=".92500001"
       stop-color="#fff"
       stop-opacity=".098039"
       id="stop11" />
    <stop
       offset="1"
       stop-color="#fff"
       stop-opacity=".498039"
       id="stop13" />
  </linearGradient>
  <clipPath
     id="c">
    <path
       d="m335.73108 62c-8.82418 0-9.77365.90635-9.7304 9.74838v12.25162 12.25162c-.0433 8.84203.90622 9.74838 9.7304 9.74838h16.53919c8.82418 0 9.7304-.90625 9.7304-9.74838v-12.25162-12.25162c0-8.84213-.90622-9.74838-9.7304-9.74838z"
       id="path16" />
  </clipPath>
  <path
     style="color:#000000;font-style:normal;font-variant:normal;font-weight:normal;font-stretch:normal;font-size:medium;line-height:normal;font-family:sans-serif;font-variant-ligatures:normal;font-variant-position:normal;font-variant-caps:normal;font-variant-numeric:normal;font-variant-alternates:normal;font-feature-settings:normal;text-indent:0;text-align:start;text-decoration:none;text-decoration-line:none;text-decoration-style:solid;text-decoration-color:#000000;letter-spacing:normal;word-spacing:normal;text-transform:none;writing-mode:lr-tb;direction:ltr;text-orientation:mixed;dominant-baseline:auto;baseline-shift:baseline;text-anchor:start;white-space:normal;shape-padding:0;clip-rule:nonzero;display:inline;overflow:visible;visibility:visible;opacity:0.1;isolation:auto;mix-blend-mode:normal;color-interpolation:sRGB;color-interpolation-filters:linearRGB;solid-color:#000000;solid-opacity:1;vector-effect:none;fill:#000000;fill-opacity:1;fill-rule:nonzero;stroke:none;stroke-width:0.52914065;stroke-linecap:butt;stroke-linejoin:miter;stroke-miterlimit:4;stroke-dasharray:none;stroke-dashoffset:0;stroke-opacity:1;marker:none;color-rendering:auto;image-rendering:auto;shape-rendering:auto;text-rendering:auto;enable-background:accumulate"
     d="M 4.1621982,0.39685654 C 3.5740849,0.38789824 3.1108804,0.41039724 2.7297987,0.47436744 2.3487142,0.53833634 2.0368758,0.65832294 1.808451,0.88620824 1.580029,1.1140937 1.4594669,1.4257916 1.3960944,1.8070369 1.3327219,2.1882825 1.3203506,2.6524293 1.3232344,3.2420208 v 3.2399529 3.2415031 c -0.00286,0.5886852 0.00955,1.0525972 0.07286,1.4334332 0.063373,0.381246 0.1839345,0.692944 0.4123566,0.920829 0.2284247,0.227885 0.5402631,0.347873 0.9213476,0.411841 0.3810844,0.06397 0.8442174,0.07751 1.4323995,0.07751 h 4.3757443 c 0.5881821,0 1.0510744,-0.01352 1.4313677,-0.07751 0.3802939,-0.064 0.6911799,-0.18439 0.9187609,-0.412357 0.227583,-0.227967 0.347433,-0.539443 0.411324,-0.920313 0.06389,-0.380868 0.07751,-0.844073 0.07751,-1.4334332 V 6.4819737 3.30713 L 8.5379425,0.46351584 Z"
     id="path1020"
     inkscape:connector-curvature="0"
     sodipodi:nodetypes="sccsccccccsscccscccs" />
  <path
     style="color:#000000;display:inline;overflow:visible;visibility:visible;opacity:0.2;fill:none;fill-opacity:1;fill-rule:nonzero;stroke:#000000;stroke-width:0.52914065;stroke-miterlimit:4;stroke-dasharray:none;stroke-opacity:1;marker:none;enable-background:accumulate"
     d="m 4.1623596,0.39685654 c -2.3346161,0 -2.5858177,0.2397933 -2.574375,2.57913196 V 6.2174034 9.4588188 C 1.5765286,11.798157 1.8277435,12.03795 4.1623596,12.03795 h 4.3757787 c 2.3346167,0 2.5743757,-0.239767 2.5743757,-2.5791312 V 6.2174034 L 11.112336,3.0425596 8.4666329,0.39685654 Z"
     id="path958"
     inkscape:connector-curvature="0"
     sodipodi:nodetypes="scccssscccs" />
  <path
     style="color:#000000;display:inline;overflow:visible;visibility:visible;fill:url(#linearGradient1024);fill-opacity:1;fill-rule:nonzero;stroke:none;stroke-width:0.26457033;marker:none;enable-background:accumulate"
     d="m 4.1623596,0.39685654 c -2.3346161,0 -2.5858177,0.2397933 -2.574375,2.57913196 V 6.2174034 9.4588188 C 1.5765286,11.798157 1.8277435,12.03795 4.1623596,12.03795 h 4.3757787 c 2.3346167,0 2.5743757,-0.239767 2.5743757,-2.5791312 V 6.2174034 L 11.112336,3.0425596 8.4666329,0.39685654 Z"
     id="path964"
     inkscape:connector-curvature="0"
     sodipodi:nodetypes="scccssscccs" />
  <path
     sodipodi:nodetypes="cccccccccccccccccccccscccccccccccccccccccscccc"
     style="display:inline;fill:#1a7fd4;stroke-width:0.02645703;enable-background:new"
     inkscape:connector-curvature="0"
     class="st1"
     d="m 8.3089569,5.3931999 c 0.2107329,0.052681 0.371417,0.1461936 0.5189309,0.2989777 0.076392,0.081657 0.1896598,0.2304884 0.1988801,0.2660493 0.00265,0.01053 -0.3582467,0.2528816 -0.5768823,0.38854 -0.00791,0.00526 -0.039514,-0.028976 -0.075075,-0.08166 C 8.2681284,6.1096934 8.1561755,6.0425216 7.9849535,6.0306662 7.7333921,6.0135485 7.5713904,6.1452543 7.572708,6.3652074 c 0,0.064537 0.00923,0.1027327 0.035561,0.1554139 0.055316,0.1145881 0.158049,0.1830748 0.4807348,0.3226859 0.5940053,0.255514 0.8482018,0.4241009 1.0062508,0.6638095 0.1764895,0.2673691 0.2160031,0.6941031 0.096147,1.0115211 -0.1317084,0.345076 -0.4583443,0.579518 -0.9180061,0.657224 -0.1422462,0.02503 -0.4794173,0.02106 -0.6322013,-0.0066 -0.3332211,-0.05927 -0.6493217,-0.223904 -0.8442492,-0.439907 -0.076392,-0.08429 -0.2252208,-0.304245 -0.2160005,-0.32005 0.00394,-0.0053 0.038193,-0.02635 0.076389,-0.04873 0.036879,-0.02109 0.1764896,-0.101417 0.308198,-0.177807 l 0.238391,-0.138293 0.050049,0.07376 c 0.069807,0.106682 0.2225883,0.252879 0.3147831,0.30161 0.2647344,0.139611 0.6282487,0.119856 0.8073734,-0.04083 0.076389,-0.0698 0.1080002,-0.142244 0.1080002,-0.248929 0,-0.09615 -0.011853,-0.138294 -0.061904,-0.210733 -0.064537,-0.0922 -0.196245,-0.169908 -0.5702945,-0.33191 C 7.4238766,7.4030665 7.2394843,7.2884785 7.0708975,7.1067213 6.9734351,7.0013535 6.8812376,6.8327693 6.8430442,6.6918407 6.8114334,6.5746201 6.8035307,6.2809101 6.8285458,6.162372 6.9167879,5.7488089 7.2289386,5.4603664 7.6793801,5.3747567 7.8255764,5.3470986 8.1653852,5.357639 8.3089463,5.3931973 Z m -1.9479651,0.3463914 0.00265,0.3398088 H 5.8236337 5.2836271 v 1.5344017 1.534402 H 4.9016749 4.51972 V 7.6138018 6.0794001 H 3.9797135 3.4397096 V 5.7461764 c 0,-0.1843923 0.00394,-0.3384886 0.00923,-0.3424413 0.00394,-0.00526 0.6611771,-0.00791 1.4580126,-0.00659 l 1.4501073,0.00394 z"
     id="path18092" />
  <path
     style="color:#000000;display:inline;overflow:visible;visibility:visible;opacity:0.2;fill:#ffffff;fill-opacity:1;fill-rule:nonzero;stroke:none;stroke-width:0.26457033;marker:none;enable-background:accumulate"
     d="M 1.5878047,6.2174034 V 9.4589068 C 1.5763487,11.798244 1.8275821,12.03795 4.1621982,12.03795 h 4.3757443 c 2.3346165,0 2.5743935,-0.239679 2.5743935,-2.5790432 V 6.2174034 Z"
     id="path1006"
     inkscape:connector-curvature="0" />
  <path
     style="color:#000000;display:inline;overflow:visible;visibility:visible;opacity:0.1;fill:#ffffff;fill-opacity:1;fill-rule:nonzero;stroke:none;stroke-width:0.26457033;marker:none;enable-background:accumulate"
     d="M 6.3500704,0.39685654 V 12.03795 h 2.1878721 c 2.3346165,0 2.5743935,-0.239679 2.5743935,-2.5790432 V 6.2174034 3.0425596 L 8.4666329,0.39685654 Z"
     id="path1013"
     inkscape:connector-curvature="0"
     sodipodi:nodetypes="ccsscccc" />
  <path
     style="color:#000000;font-style:normal;font-variant:normal;font-weight:normal;font-stretch:normal;font-size:medium;line-height:normal;font-family:sans-serif;font-variant-ligatures:normal;font-variant-position:normal;font-variant-caps:normal;font-variant-numeric:normal;font-variant-alternates:normal;font-feature-settings:normal;text-indent:0;text-align:start;text-decoration:none;text-decoration-line:none;text-decoration-style:solid;text-decoration-color:#000000;letter-spacing:normal;word-spacing:normal;text-transform:none;writing-mode:lr-tb;direction:ltr;text-orientation:mixed;dominant-baseline:auto;baseline-shift:baseline;text-anchor:start;white-space:normal;shape-padding:0;clip-rule:nonzero;display:inline;overflow:visible;visibility:visible;opacity:0.4;isolation:auto;mix-blend-mode:normal;color-interpolation:sRGB;color-interpolation-filters:linearRGB;solid-color:#000000;solid-opacity:1;vector-effect:none;fill:url(#linearGradient1004);fill-opacity:1;fill-rule:nonzero;stroke:none;stroke-width:0.52914065;stroke-linecap:butt;stroke-linejoin:miter;stroke-miterlimit:4;stroke-dasharray:none;stroke-dashoffset:0;stroke-opacity:1;marker:none;color-rendering:auto;image-rendering:auto;shape-rendering:auto;text-rendering:auto;enable-background:accumulate"
     clip-path="none"
     d="m 4.1621982,0.39685654 c -2.3346161,0 -2.5858362,0.2397052 -2.5743935,2.57904386 v 3.241503 3.2415034 C 1.5763487,11.798244 1.8275821,12.03795 4.1621982,12.03795 h 4.3757443 c 2.3346165,0 2.5743935,-0.239679 2.5743935,-2.5790432 V 6.2174034 3.0425596 h -0.26457 v 3.1748438 3.2415034 c 0,0.5803222 -0.01624,1.0240712 -0.07028,1.3461032 -0.05402,0.322035 -0.139871,0.509123 -0.264055,0.633524 -0.124184,0.124388 -0.310701,0.2105 -0.6319709,0.264571 -0.321273,0.05406 -0.7643965,0.07028 -1.3435224,0.07028 H 4.1621982 c -0.5791259,0 -1.0227997,-0.01619 -1.3450728,-0.07028 C 2.4948549,11.649003 2.3068301,11.563015 2.1820535,11.438534 2.0572795,11.314046 1.9714661,11.127183 1.9180017,10.805529 1.8645347,10.483875 1.8495335,10.040018 1.852375,9.4599398 V 9.4594108 6.2174034 2.9753836 2.9748545 c -0.00283,-0.5800778 0.01217,-1.0239334 0.065627,-1.3455882 0.053467,-0.3216548 0.1392778,-0.5085248 0.2640518,-0.63300506 0.124774,-0.1244803 0.31332,-0.2104736 0.6355904,-0.2645703 0.3222705,-0.0540718 0.7654284,-0.0702641 1.3445543,-0.0702641 h 4.3044347 v -0.2645703 z"
     id="path990"
     inkscape:connector-curvature="0" />
  <path
     inkscape:connector-curvature="0"
     style="color:#000000;display:inline;overflow:visible;visibility:visible;opacity:0.2;fill:#000000;fill-opacity:1;fill-rule:nonzero;stroke:none;stroke-width:0.06614863;marker:none;enable-background:accumulate"
     d="M 11.112336,3.30713 V 3.0425596 L 8.4666329,0.39685654 H 8.2020626 v 1.11359066 0.042668 0.022917 c 0,1.5059289 0.201592,1.7381397 1.7109762,1.7307589 z"
     id="rect4158-0-3-62-2"
     sodipodi:nodetypes="ccccccscc" />
  <path
     inkscape:connector-curvature="0"
     style="color:#000000;display:inline;overflow:visible;visibility:visible;fill:#faf8f6;fill-opacity:1;fill-rule:nonzero;stroke:none;stroke-width:0.06614863;marker:none;enable-background:accumulate"
     d="M 11.112336,3.042221 8.4666329,0.39685604 v 0.98127586 0.042668 0.022917 c 0,1.5059289 0.069402,1.6058846 1.5787861,1.5985039 z"
     id="rect4158-0-3-62"
     sodipodi:nodetypes="ccccscc" />
</svg>
